src/xmb/retrosystem/Entex - Adventure Vision-content.svg

<svg xmlns="http://www.w3.org/2000/svg" xml:space="preserve" width="256" height="256" viewBox="0 0 341.333 341.333"><path d="M0 0h-216a4 4 0 0 0-4 4v100a4 4 0 0 0 4 4H0a4 4 0 0 0 4-4V4a4 4 0 0 0-4-4" style="fill:#262626;fill-opacity:1;fill-rule:nonzero;stroke:none" transform="matrix(1.33333 0 0 -1.33333 314.667 245.333)"/><path d="M309.333 229.333H32V112h277.333Z" style="fill:#000;fill-opacity:1;fill-rule:nonzero;stroke:none;stroke-width:1.33333325"/><path d="M32 208h277.333v-16H32Z" style="fill:#a6a6a6;fill-opacity:1;fill-rule:nonzero;stroke:none;stroke-width:1.33333325"/><path d="M309.333 122.667H32v-5.334h277.333Z" style="fill:#b80000;fill-opacity:1;fill-rule:nonzero;stroke:none;stroke-width:1.33333325"/><circle cx="69.906" cy="156.685" r="17.425" style="opacity:1;vector-effect:none;fill:#a6a6a6;fill-opacity:1;stroke:#b80000;stroke-width:12.18931198;stroke-linecap:butt;stroke-linejoin:miter;stroke-miterlimit:4;stroke-dasharray:none;stroke-dashoffset:0;stroke-opacity:1;paint-order:stroke fill markers"/><circle cx="69.906" cy="156.685" r="7.175" style="opacity:1;vector-effect:none;fill:navy;fill-opacity:1;stroke:none;stroke-width:12.18931389;stroke-linecap:butt;stroke-linejoin:miter;stroke-miterlimit:4;stroke-dasharray:none;stroke-dashoffset:0;stroke-opacity:1;paint-order:stroke fill markers"/><text xml:space="preserve" x="82.486" y="205.156" style="font-style:normal;font-weight:400;font-size:14.22222328px;line-height:1.25;font-family:sans-serif;letter-spacing:0;word-spacing:0;fill:navy;fill-opacity:1;stroke:none;stroke-width:1.33333337"><tspan x="82.486" y="205.156" style="fill:navy;stroke-width:1.33333337">ADVENTURE CARTRIDGE</tspan></text><g style="fill:#a6a6a6;fill-opacity:1;stroke:none;stroke-opacity:1"><g style="fill:#a6a6a6;fill-opacity:1;stroke:none;stroke-opacity:1"><path d="m0 0 14.062 12V6.757L20.009 12V3.946s4.088 7.676 4.336 7.676 9.726-.054 9.726-.054l-1.549-2.811h-5.637l-.805-1.514h3.159l-1.858-3.135h-2.416l-.682-1.243h11.398l.744 1.189h-5.699l4.398 7.622h9.911l-1.734-2.973h-5.637l-.929-1.46h5.823L38.469 0H15.735l.123 3.892L11.336 0l-.186 3.946L6.628 0Z" style="fill:#a6a6a6;fill-opacity:1;fill-rule:nonzero;stroke:none;stroke-opacity:1" transform="matrix(1.78427 0 0 -1.78427 146.42 167.463)"/></g><g style="fill:#a6a6a6;fill-opacity:1;stroke:none;stroke-opacity:1"><path d="m0 0-.121.001-1.094-2.206Z" style="fill:#a6a6a6;fill-opacity:1;fill-rule:nonzero;stroke:none;stroke-opacity:1" transform="matrix(1.78427 0 0 -1.78427 226.775 146.824)"/></g><g style="fill:#a6a6a6;fill-opacity:1;stroke:none;stroke-opacity:1"><path d="m0 0 1.735 2.973h-9.912l-4.398-7.622h5.699l-.743-1.189h-5.493l-1.684-2.865h9.964l4.089 7.244h-5.823L-5.637 0Z" style="fill:#a6a6a6;fill-opacity:1;fill-rule:nonzero;stroke:none;stroke-opacity:1" transform="matrix(1.78427 0 0 -1.78427 243.244 151.935)"/></g></g></svg>

<?xml version="1.0" encoding="UTF-8" standalone="no"?>
<svg
   xmlns:dc="http://purl.org/dc/elements/1.1/"
   xmlns:cc="http://creativecommons.org/ns#"
   xmlns:rdf="http://www.w3.org/1999/02/22-rdf-syntax-ns#"
   xmlns:svg="http://www.w3.org/2000/svg"
   xmlns="http://www.w3.org/2000/svg"
   xmlns:sodipodi="http://sodipodi.sourceforge.net/DTD/sodipodi-0.dtd"
   xmlns:inkscape="http://www.inkscape.org/namespaces/inkscape"
   viewBox="0 0 341.33334 341.33334"
   height="256"
   width="256"
   xml:space="preserve"
   id="svg2"
   version="1.1"
   sodipodi:docname="Entex - Adventure Vision-content.svg"
   inkscape:version="0.92.2 (5c3e80d, 2017-08-06)"><sodipodi:namedview
     pagecolor="#ffffff"
     bordercolor="#666666"
     borderopacity="1"
     objecttolerance="10"
     gridtolerance="10"
     guidetolerance="10"
     inkscape:pageopacity="0"
     inkscape:pageshadow="2"
     inkscape:window-width="1920"
     inkscape:window-height="1001"
     id="namedview23"
     showgrid="false"
     inkscape:pagecheckerboard="true"
     inkscape:zoom="0.69140625"
     inkscape:cx="319.61574"
     inkscape:cy="117.14046"
     inkscape:window-x="-9"
     inkscape:window-y="-9"
     inkscape:window-maximized="1"
     inkscape:current-layer="svg2"
     inkscape:snap-object-midpoints="true" /><metadata
     id="metadata8"><rdf:RDF><cc:Work
         rdf:about=""><dc:format>image/svg+xml</dc:format><dc:type
           rdf:resource="http://purl.org/dc/dcmitype/StillImage" /><dc:title /></cc:Work></rdf:RDF></metadata><defs
     id="defs6"><clipPath
       id="clipPath18"
       clipPathUnits="userSpaceOnUse"><path
         id="path16"
         d="M 0,256 H 256 V 0 H 0 Z" /></clipPath><clipPath
       id="clipPath26"
       clipPathUnits="userSpaceOnUse"><path
         id="path24"
         d="M 8,188 H 248 V 64 H 8 Z" /></clipPath></defs><g
     id="g36"
     transform="matrix(1.3333333,0,0,-1.3333333,314.66666,245.33333)"><path
       inkscape:connector-curvature="0"
       d="m 0,0 h -216 c -2.209,0 -4,1.791 -4,4 v 100 c 0,2.209 1.791,4 4,4 H 0 c 2.209,0 4,-1.791 4,-4 V 4 C 4,1.791 2.209,0 0,0"
       style="fill:#262626;fill-opacity:1;fill-rule:nonzero;stroke:none"
       id="path38" /></g><path
     inkscape:connector-curvature="0"
     d="M 309.33333,229.33333 H 31.999999 V 112 H 309.33333 Z"
     style="fill:#000000;fill-opacity:1;fill-rule:nonzero;stroke:none;stroke-width:1.33333325"
     id="path40" /><path
     inkscape:connector-curvature="0"
     d="M 31.999999,208 H 309.33333 V 192 H 31.999999 Z"
     style="fill:#a6a6a6;fill-opacity:1;fill-rule:nonzero;stroke:none;stroke-width:1.33333325"
     id="path42" /><path
     inkscape:connector-curvature="0"
     d="M 309.33333,122.66667 H 31.999999 v -5.33333 H 309.33333 Z"
     style="fill:#b80000;fill-opacity:1;fill-rule:nonzero;stroke:none;stroke-width:1.33333325"
     id="path44" /><circle
     r="17.424746"
     cy="156.6855"
     cx="69.905846"
     id="circle824"
     style="opacity:1;vector-effect:none;fill:#a6a6a6;fill-opacity:1;stroke:#b80000;stroke-width:12.18931198;stroke-linecap:butt;stroke-linejoin:miter;stroke-miterlimit:4;stroke-dasharray:none;stroke-dashoffset:0;stroke-opacity:1;paint-order:stroke fill markers" /><circle
     r="7.1748943"
     cy="156.6855"
     cx="69.905846"
     id="circle826"
     style="opacity:1;vector-effect:none;fill:#000080;fill-opacity:1;stroke:none;stroke-width:12.18931389;stroke-linecap:butt;stroke-linejoin:miter;stroke-miterlimit:4;stroke-dasharray:none;stroke-dashoffset:0;stroke-opacity:1;paint-order:stroke fill markers" /><text
     xml:space="preserve"
     style="font-style:normal;font-weight:normal;font-size:14.22222328px;line-height:1.25;font-family:sans-serif;letter-spacing:0px;word-spacing:0px;fill:#000080;fill-opacity:1;stroke:none;stroke-width:1.33333337"
     x="82.486115"
     y="205.15625"
     id="text830"><tspan
       sodipodi:role="line"
       id="tspan828"
       x="82.486115"
       y="205.15625"
       style="fill:#000080;stroke-width:1.33333337">ADVENTURE CARTRIDGE</tspan></text>
<g
     id="g872"
     transform="matrix(1.3382044,0,0,1.3382044,-69.426358,-163.24164)"
     style="fill:#a6a6a6;fill-opacity:1;stroke:none;stroke-opacity:1"><g
       transform="matrix(1.3333333,0,0,-1.3333333,161.29535,247.12598)"
       id="g102"
       style="fill:#a6a6a6;fill-opacity:1;stroke:none;stroke-opacity:1"><path
         id="path104"
         style="fill:#a6a6a6;fill-opacity:1;fill-rule:nonzero;stroke:none;stroke-opacity:1"
         d="M 0,0 14.062,12 V 6.757 L 20.009,12 V 3.946 c 0,0 4.088,7.676 4.336,7.676 0.248,0 9.726,-0.054 9.726,-0.054 L 32.522,8.757 H 26.885 L 26.08,7.243 h 3.159 L 27.381,4.108 H 24.965 L 24.283,2.865 h 11.398 l 0.744,1.189 h -5.699 l 4.398,7.622 h 9.911 L 43.301,8.703 h -5.637 l -0.929,-1.46 h 5.823 L 38.469,0 H 15.735 L 15.858,3.892 11.336,0 11.15,3.946 6.628,0 Z"
         inkscape:connector-curvature="0" /></g><g
       transform="matrix(1.3333333,0,0,-1.3333333,221.34254,231.7025)"
       id="g106"
       style="fill:#a6a6a6;fill-opacity:1;stroke:none;stroke-opacity:1"><path
         id="path108"
         style="fill:#a6a6a6;fill-opacity:1;fill-rule:nonzero;stroke:none;stroke-opacity:1"
         d="M 0,0 C 0,0 -0.044,0 -0.121,0.001 L -1.215,-2.205 Z"
         inkscape:connector-curvature="0" /></g><g
       transform="matrix(1.3333333,0,0,-1.3333333,233.64934,235.52238)"
       id="g110"
       style="fill:#a6a6a6;fill-opacity:1;stroke:none;stroke-opacity:1"><path
         id="path112"
         style="fill:#a6a6a6;fill-opacity:1;fill-rule:nonzero;stroke:none;stroke-opacity:1"
         d="m 0,0 1.735,2.973 h -9.912 l -4.398,-7.622 h 5.699 l -0.743,-1.189 h -5.493 l -1.684,-2.865 h 9.964 l 4.089,7.244 H -6.566 L -5.637,0 Z"
         inkscape:connector-curvature="0" /></g></g></svg>
